src/assets/vectors/logo.svg

<svg width="16" height="16" viewBox="0 0 16 16" fill="none" xmlns="http://www.w3.org/2000/svg">
    <path d="M1 1.36711V6.66758C1 6.69778 1.0151 6.72798 1.0151 6.74308L6.67799 15.9245C6.70819 15.9698 6.75349 16 6.8139 16H10.0757C10.1965 16 10.272 15.8641 10.2116 15.7735L1.30202 1.30671C1.19631 1.1557 1 1.2161 1 1.36711Z"
          fill="#364048"/>
    <path d="M5.40975 3.60158C5.45506 3.67708 5.54566 3.69218 5.62117 3.64688C7.72021 2.4539 10.4082 3.11835 11.6767 5.18719C12.9603 7.25603 12.3411 9.95911 10.3327 11.288C10.2572 11.3333 10.2421 11.4239 10.2874 11.4994L11.722 13.825C11.7673 13.9005 11.8579 13.9156 11.9334 13.8703C15.3613 11.6655 16.4184 7.04461 14.2741 3.55627C12.1146 0.0981391 7.5088 -1.03444 4.00536 1.0344C3.92985 1.07971 3.91475 1.17031 3.96005 1.24582C4.44329 2.03107 4.92652 2.81632 5.40975 3.60158Z"
          fill="#364048"/>
    <path d="M3.08394 13.2516C2.4346 13.2516 1.80035 13.2667 1.15101 13.2667C1.0604 13.2667 1 13.2063 1 13.1157V10.3673C1 10.2767 1.07551 10.2163 1.15101 10.2163H1.34732C1.43793 10.2163 1.51343 10.2163 1.60404 10.2163C1.66445 10.2163 1.70975 10.2465 1.73995 10.2918L1.84566 10.473C2.31379 11.3187 2.76682 12.1643 3.23495 13.0251C3.28026 13.1308 3.20475 13.2516 3.08394 13.2516Z"
          fill="#364048"/>
</svg>

<svg xmlns="http://www.w3.org/2000/svg" width="16" height="16" viewBox="0 0 16 16" fill="#364048"><path d="M1 1.367v5.3c0 .03.015.06.015.075l5.663 9.18c.03.045.075.075.136.075h3.262c.12 0 .196-.136.136-.226l-8.9-14.467c-.106-.15-.302-.1-.302.06zm4.4 2.235c.045.076.136.1.2.045 2.1-1.193 4.787-.53 6.056 1.54a4.49 4.49 0 0 1-1.344 6.101c-.076.045-.1.136-.045.2l1.435 2.326c.045.075.136.1.2.045 3.428-2.205 4.485-6.826 2.34-10.314-2.16-3.458-6.765-4.6-10.27-2.522-.076.045-.1.136-.045.2L5.4 3.602zm-2.316 9.65l-1.933.015c-.1 0-.15-.06-.15-.15V10.37c0-.1.076-.15.15-.15h.453c.06 0 .106.03.136.075l.106.18 1.4 2.552c.045.106-.03.226-.15.226z"/></svg>
